X:166
T:Catharsis
C:Amy Cann, 1989
S:Colin Hume's website,  colinhume.com  - chords can also be printed below the stave.
Q:1/2=112
M:2/2
R:Reel
L:1/8
K:Bb
P:A
|: "Gm"[G,D]GGF DGGF | DFGA B/A/G "F"AF | "Gm"DGGF DGGF | "Cm"LDCB,LC "Dm"B,A,LB,A, |
"Gm"[G,D]GGF DGGF | DFGA B/A/G Ac | LdcBLc BAGF |1 "Dm"DGGF "Gm"G2G2 :|2 "Dm"DGGF "Gm"GABc |
P:B]
|: "Gm"LdGGLc GGLBG | GLAGG LGABc | "F"LdFFLc FFLBF | FLAFF LGABc |
"Eb"LdEELc EELBE | ELAEE LGABc | "Gm"LdcBc BAGF |1 "Dm"DGGF "Gm"GABc :|2 "Dm"DCB,C B,A,B,A, |]

